X:1
T:Shepton-Beauchamp, LM
T:Shepton-Beauchamp, LM
T:English traditional melody
T:Public Domain Courtesy of the Cyber Hymnal™
C:English traditional melody
Z:Public Domain
Z:Courtesy of the Cyber Hymnal™
%%score ( 1 2 ) ( 3 4 )
L:1/8
Q:1/4=110
M:4/4
K:F
V:1 treble 
V:2 treble 
V:3 bass 
V:4 bass 
V:1
 [CF]2 [CE]>[CE] [A,F]2 [FA]2 | [FG]2 G>A G4 | [EG]2 [EG]>[FA] [EG]2 C2 | [CG]2 A>F [EG]4 | %4
 [Fc]2 [Fc][Ec] [Dd]3 [Fc] | [FB]2 AG AB c2 | [DF]3 D B2 [FA]2 | GF [CE]2 [CF]4 |] %8
V:2
 x8 | x2 F2 F2 E2 | x6 C2 | x2 C2 x4 | x8 | x2 E2 F2 FE | x3 D DE x2 | D2 x6 |] %8
V:3
 [F,A,]2 [C,G,]>[C,G,] [D,F,]2 [A,,C]2 | [B,,D]2 [=B,,D]2 [C,G,]4 | %2
 [C,C]2 [C,C]>[F,C] [C,C]2 [C,E,][D,F,] | [E,G,]2 F,>A, C4 | [A,,C]2 [A,,C][A,,C] [B,,B,]3 [A,,C] | %5
 [G,,D]2 [C,C]2 [F,C]2 [A,,C]2 | [D,A,]3 [D,F,] [G,,B,]2 [A,,C]2 | B,A, [C,G,]2 [F,,F,A,]4 |] %8
V:4
 x8 | x8 | x8 | x2 F,2 (C,2 B,,2) | x8 | x8 | x8 | B,,2 x6 |] %8

